src/assets/principle.svg

<svg xmlns="http://www.w3.org/2000/svg" width="93.097" height="93.097" viewBox="0 0 24.632 24.632"><defs><clipPath clipPathUnits="userSpaceOnUse" id="a"><path d="M0 841.89h595.276V0H0z"/></clipPath></defs><g clip-path="url(#a)" transform="matrix(.35278 0 0 -.35278 -92.555 94.224)"><path d="M0 0c0-19.28-15.631-34.911-34.912-34.911-19.28 0-34.911 15.631-34.911 34.911 0 19.281 15.631 34.912 34.911 34.912C-15.631 34.912 0 19.281 0 0" style="fill:#48abcc;fill-opacity:1;fill-rule:nonzero;stroke:none" transform="translate(332.183 232.18)"/><path d="M0 0c-1.115 2.563-2.157 5.035-3.267 7.478-1.101 2.424-2.059 4.92-3.418 7.472L-13.52.003C-12.523-.288-1.344-.313 0 0m-33.365.041c-.75 1.703-1.494 3.397-2.241 5.088-.769 1.744-1.49 3.513-2.329 5.224-.805 1.644-1.323 3.435-2.349 5.051-.851-1.086-6.648-14.47-6.775-15.536 2.015-.241 12.716-.143 13.694.173m7.544-11.512v29.77c-1.189.287-12.849.261-13.841-.037.096-.293.166-.594.289-.872 1.655-3.754 3.309-7.508 4.98-11.254A244.435 244.435 0 0 1-31.846.605c.184-.385.52-.698.808-1.073-5.161-6.302-14.215-5.681-18.808.139.72.094.913.667 1.148 1.188 1.108 2.47 2.202 4.947 3.304 7.42 1.296 2.909 2.598 5.816 3.89 8.726.172.391.301.801.486 1.3l-1.415.326v2.304c.912.125 1.853.203 2.772.394 1.011.21 2.001.52 2.998.794 1.417.391 2.81.955 4.252 1.14 1.684.215 3.41.115 5.117.126 2.466.015 4.934-.055 7.398.026 2.434.08 4.848.205 7.235-.478 2.14-.614 4.302-1.147 6.46-1.695.498-.126 1.018-.166 1.531-.246.284-.804.292-.972.098-2.373l-1.328-.271c.073-.348.084-.664.204-.931C-3.455 12.407-1.2 7.4 1.052 2.392c.294-.655.552-1.328.894-1.955.173-.32.493-.558.766-.853-5.137-6.567-14.58-5.524-18.695-.05.273.314.627.577.792.93.96 2.057 1.877 4.134 2.805 6.205 1.336 2.977 2.674 5.955 4.002 8.937.384.861.736 1.737 1.171 2.769-1.253.212-2.357.093-3.449.113-1.157.023-2.316.005-3.473.005H-20.771c-.269-.999-.363-27.807-.123-29.941 3.665-1.07 7.514-1.677 11.304-2.792v-2.082c-1.033-.256-26.452-.267-27.581-.009v2.102c3.715 1.078 7.567 1.799 11.35 2.758" style="fill:#fff;fill-opacity:1;fill-rule:nonzero;stroke:none" transform="translate(320.838 228.701)"/></g></svg>

<?xml version="1.0" encoding="UTF-8" standalone="no"?>
<svg
   xmlns:dc="http://purl.org/dc/elements/1.1/"
   xmlns:cc="http://creativecommons.org/ns#"
   xmlns:rdf="http://www.w3.org/1999/02/22-rdf-syntax-ns#"
   xmlns:svg="http://www.w3.org/2000/svg"
   xmlns="http://www.w3.org/2000/svg"
   width="24.632002mm"
   height="24.632002mm"
   viewBox="0 0 24.632001 24.632002"
   version="1.1"
   id="svg6165">
  <defs
     id="defs6159">
    <clipPath
       clipPathUnits="userSpaceOnUse"
       id="clipPath896-0">
      <path
         d="M 0,841.89 H 595.276 V 0 H 0 Z"
         id="path894-3" />
    </clipPath>
    <clipPath
       clipPathUnits="userSpaceOnUse"
       id="clipPath6104">
      <path
         d="M 0,841.89 H 595.276 V 0 H 0 Z"
         id="path6102" />
    </clipPath>
    <clipPath
       clipPathUnits="userSpaceOnUse"
       id="clipPath972-1">
      <path
         d="M 0,841.89 H 595.276 V 0 H 0 Z"
         id="path970-0" />
    </clipPath>
    <clipPath
       clipPathUnits="userSpaceOnUse"
       id="clipPath1056-3">
      <path
         d="M 0,841.89 H 595.276 V 0 H 0 Z"
         id="path1054-6" />
    </clipPath>
    <clipPath
       clipPathUnits="userSpaceOnUse"
       id="clipPath1116-7">
      <path
         d="M 0,841.89 H 595.276 V 0 H 0 Z"
         id="path1114-3" />
    </clipPath>
  </defs>
  <metadata
     id="metadata6162">
    <rdf:RDF>
      <cc:Work
         rdf:about="">
        <dc:format>image/svg+xml</dc:format>
        <dc:type
           rdf:resource="http://purl.org/dc/dcmitype/StillImage" />
        <dc:title></dc:title>
      </cc:Work>
    </rdf:RDF>
  </metadata>
  <g
     id="layer1"
     transform="translate(-376.4567,-159.95185)">
    <g
       id="g7466-2"
       transform="translate(276.35163,138.15913)">
      <g
         id="g1112-8"
         clip-path="url(#clipPath1116-7)"
         transform="matrix(0.35277777,0,0,-0.35277777,7.5504392,116.01712)">
        <g
           id="g1118-9"
           transform="translate(332.1826,232.1808)">
          <path
             d="M 0,0 C 0,-19.28 -15.631,-34.911 -34.912,-34.911 -54.192,-34.911 -69.823,-19.28 -69.823,0 -69.823,19.281 -54.192,34.912 -34.912,34.912 -15.631,34.912 0,19.281 0,0"
             style="fill:#48abcc;fill-opacity:1;fill-rule:nonzero;stroke:none"
             id="path1120-2" />
        </g>
        <g
           id="g1122-4"
           transform="translate(320.8379,228.7013)">
          <path
             d="M 0,0 C -1.115,2.563 -2.157,5.035 -3.267,7.478 -4.368,9.902 -5.326,12.398 -6.685,14.95 -9.035,9.81 -11.274,4.914 -13.52,0.003 -12.523,-0.288 -1.344,-0.313 0,0 M -33.365,0.041 C -34.115,1.744 -34.859,3.438 -35.606,5.129 -36.375,6.873 -37.096,8.642 -37.935,10.353 -38.74,11.997 -39.258,13.788 -40.284,15.404 -41.135,14.318 -46.932,0.934 -47.059,-0.132 -45.044,-0.373 -34.343,-0.275 -33.365,0.041 M -25.821,-11.471 V 18.299 C -27.01,18.586 -38.67,18.56 -39.662,18.262 -39.566,17.969 -39.496,17.668 -39.373,17.39 -37.718,13.636 -36.064,9.882 -34.393,6.136 -33.566,4.282 -32.719,2.438 -31.846,0.605 -31.662,0.22 -31.326,-0.093 -31.038,-0.468 -36.199,-6.77 -45.253,-6.149 -49.846,-0.329 -49.126,-0.235 -48.933,0.338 -48.698,0.859 -47.59,3.329 -46.496,5.806 -45.394,8.279 -44.098,11.188 -42.796,14.095 -41.504,17.005 -41.332,17.396 -41.203,17.806 -41.018,18.305 -41.541,18.425 -41.945,18.519 -42.433,18.631 V 20.935 C -41.521,21.06 -40.58,21.138 -39.661,21.329 -38.65,21.539 -37.66,21.849 -36.663,22.123 -35.246,22.514 -33.853,23.078 -32.411,23.263 -30.727,23.478 -29.001,23.378 -27.294,23.389 -24.828,23.404 -22.36,23.334 -19.896,23.415 -17.462,23.495 -15.048,23.62 -12.661,22.937 -10.521,22.323 -8.359,21.79 -6.201,21.242 -5.703,21.116 -5.183,21.076 -4.67,20.996 -4.386,20.192 -4.378,20.024 -4.572,18.623 -4.96,18.544 -5.373,18.46 -5.9,18.352 -5.827,18.004 -5.816,17.688 -5.696,17.421 -3.455,12.407 -1.2,7.4 1.052,2.392 1.346,1.737 1.604,1.064 1.946,0.437 2.119,0.117 2.439,-0.121 2.712,-0.416 -2.425,-6.983 -11.868,-5.94 -15.983,-0.466 -15.71,-0.152 -15.356,0.111 -15.191,0.464 -14.231,2.521 -13.314,4.598 -12.386,6.669 -11.05,9.646 -9.712,12.624 -8.384,15.606 -8,16.467 -7.648,17.343 -7.213,18.375 -8.466,18.587 -9.57,18.468 -10.662,18.488 -11.819,18.511 -12.978,18.493 -14.135,18.493 H -17.487 -20.771 C -21.04,17.494 -21.134,-9.314 -20.894,-11.448 -17.229,-12.518 -13.38,-13.125 -9.59,-14.24 V -16.322 C -10.623,-16.578 -36.042,-16.589 -37.171,-16.331 V -14.229 C -33.456,-13.151 -29.604,-12.43 -25.821,-11.471"
             style="fill:#ffffff;fill-opacity:1;fill-rule:nonzero;stroke:none"
             id="path1124-5" />
        </g>
      </g>
    </g>
  </g>
</svg>
